X:1
T:Drunken Gauger
S:Erickson, Jeffrey <jeerickson:DAVIDSON.EDU> irtrad-l 2001-12-13
M:6/8
L:1/8
S:learned from David Kidd
R:Jig
Z:Lorna LaVerne
K:G
D | GAB c2A | BAG AGE | GBd g2e | dBe dBG |
c2A BdB | AGA BGE | DEG AGA | BGG G2 |]
D | GAB c2A | BAG AGE | GBd g2e | dBe dBG |
c2A BdB | AGA BGE | DEG AGA | BGG G2 |]
D | GBd g2e | dBe dBG | Ace a2a | agb age |
dBd g2e | dBe dBG | c2A BdB | AGA BGG |
GBd g2e | dBe dBG | Ace a2a | agb age |
dBd g2e | dBe dBG | c2A BdB | AGF G2 |]
